X: 31
T: VALSE A PERRONNE
C: Marc PERRONNE
M: 3/4
L: 1/8
Q:1/4=80
K:C 
|:ec2 BAc/2A/2|c/2A/2GB/2G/2 B/2G/2Ac|ec2 BAc/2A/2|c/2A/2GB/2G/2 B/2G/2A
2:|!
eA2 E/2F/2EC/2A,/2|C/2E/2A2 AGB/2G/2|B/2G/2A2 E/2F/2EC/2A,/2|C/2E/2A2 AG
B/2G/2|
B/2G/2A2 E/2F/2EC/2A,/2|C/2E/2A2 AGB/2G/2|B/2G/2A2 E/2F/2EC/2A,/2|C/2E/2
A2 AGB/2G/2|
B/2G/2A2 e|
